public/fbgrey.svg

<svg fill="none" height="32" viewBox="0 0 32 32" width="32" xmlns="http://www.w3.org/2000/svg"><path d="m16 3.33333c-3.3594 0-6.58121 1.33452-8.95668 3.70998-2.37546 2.37546-3.70998 5.59729-3.70998 8.95669s1.33452 6.5812 3.70998 8.9567c2.37547 2.3754 5.59728 3.71 8.95668 3.71s6.5812-1.3346 8.9567-3.71c2.3755-2.3755 3.71-5.5973 3.71-8.9567s-1.3345-6.58123-3.71-8.95669-5.5973-3.70998-8.9567-3.70998z" fill="#949494"/><path d="m17.7147 19.3573h3.278l.5146-3.33h-3.7933v-1.82c0-1.3833.452-2.61 1.746-2.61h2.0793v-2.90597c-.3653-.04933-1.138-.15733-2.598-.15733-3.0486 0-4.836 1.61-4.836 5.278v2.2153h-3.134v3.33h3.134v9.1527c.6207.0933 1.2494.1567 1.8947.1567.5833 0 1.1527-.0534 1.7147-.1294z" fill="#fff"/></svg>

<svg width="32" height="32" viewBox="0 0 32 32" fill="none" xmlns="http://www.w3.org/2000/svg">
<path d="M16 3.33333C12.6406 3.33333 9.41879 4.66785 7.04332 7.04331C4.66786 9.41877 3.33334 12.6406 3.33334 16C3.33334 19.3594 4.66786 22.5812 7.04332 24.9567C9.41879 27.3321 12.6406 28.6667 16 28.6667C19.3594 28.6667 22.5812 27.3321 24.9567 24.9567C27.3322 22.5812 28.6667 19.3594 28.6667 16C28.6667 12.6406 27.3322 9.41877 24.9567 7.04331C22.5812 4.66785 19.3594 3.33333 16 3.33333Z" fill="#949494"/>
<path d="M17.7147 19.3573H20.9927L21.5073 16.0273H17.714V14.2073C17.714 12.824 18.166 11.5973 19.46 11.5973H21.5393V8.69133C21.174 8.642 20.4013 8.534 18.9413 8.534C15.8927 8.534 14.1053 10.144 14.1053 13.812V16.0273H10.9713V19.3573H14.1053V28.51C14.726 28.6033 15.3547 28.6667 16 28.6667C16.5833 28.6667 17.1527 28.6133 17.7147 28.5373V19.3573Z" fill="white"/>
</svg>
